X:175
T:Mike Flynn's
D:Mike & Mary Rafferty, The Old Fireside Music (1998)
N:Transposed from C dorian for comparison
Z:Nigel Gatherer
M:4/4
L:1/8
K:A dorian
A>AAB GEDE|G2 Bd edBd|ea a2 gedB|A z BG AGED|A>AAB GEDE|G2 Bd edBd|
ea a2 gedB|AcBG A2 z2::a>aab agef|gedB G2 (3Bcd|egfa gedB|
A z BG AGed|a>aab agef|gedB G2 (3Bcd|ea a2 gedB|AcBG A2 z2:|
<end>
<start>
